X:1
T:Title
%%score { ( 1 3 ) | ( 2 4 ) }
L:1/8
Q:1/4=94
M:4/4
K:C
V:1 treble nm="Grand Piano"
V:3 treble 
V:2 bass 
V:4 bass 
V:1
 [EG]2 [CE][DF] [FA]>[EG] [EG]2 |[M:9/8] [Ec]2 B A[EG]>[DF] [CE]3 | %2
w: W.~J.~Kirkpatrick * * * * *||
[M:4/4] [DF]2 [B,D][CE] [EG]>[DF] [DF][B,FA] | [CFA][CEG][B,DG][A,D^F] [B,DG]4 | %4
w: ||
 [EG]2 [EG][EG] [FA]3 [FA] | [FB]3 [FB] [Ec]4 | A2 AA [^GB]3 [GB] | c3 c d4 | z4 A2 z2 | %9
w: |||||
 [CEG]3 [G,B,F] [G,CE]4 |] %10
w: |
V:2
 [C,C]2 [C,G,][C,G,] [C,C]>[C,C] [C,C]2 | %1
[M:9/8] [C,G,]2[K:treble] [G,G] [G,F][K:bass][G,,G,]>[G,,G,] [C,G,]3 | %2
[M:4/4] [G,,G,]2 [G,,G,][G,,G,] [G,,G,]>[G,,G,] [G,,G,]G,, | C,C,D,D, G,,4 | %4
 [C,C]2 [C,C][C,C] [F,C]3 [F,C] | [D,G,]3 [D,G,] [C,G,]4 | [F,CF]2 [F,CF][F,CF] [E,E]3 [E,E] | %7
 [A,EA]3 [A,C^F] [G,B,G]4 | z d[K:bass]E,E, z A, z C | G,3 G,, C,4 |] %10
V:3
 x8 |[M:9/8] x9 |[M:4/4] x8 | x8 | x8 | x8 | x8 | x8 | .[^Ge]2 [EAc][DGB] [Dd]c[B,=GB][FA] | x8 |] %10
V:4
 x8 |[M:9/8] x2[K:treble] x2[K:bass] x5 |[M:4/4] x8 | x8 | x8 | x8 | x8 | x8 | %8
 [E,B,]2[K:bass] z2 F,2 F,2 | x8 |] %10

